X: 20
T: Paddy Ryan's Dream
R: reel
M: 4/4
L: 1/8
K: Ador
cB|:AE~E2 cABG|(3EFG DC B,G,DB,|~A,2A,B, CDEG|(3cBA BG ABcB|
AE~E2 cABG|(3EFG DC B,G,DB,|~A,2 A,B, CB,CD|1 EAAG A2cB:|2 EAAG ABcB||
|:Aaa^g aecA|Gggf gdBG|Aaa^g ae=fd|e=fde cBAG|
Aaa^g aecA|Gggf gdBG|(3ABc Bd ced=f|1 edcB cBAG:|2 edcB ABcB|